!!!OTL: Die dienende Schwester.
!!!OTL-incipit: Es war einmal ein Maegdelein,
!!!ARE: Europa, Mitteleuropa, Deutschland (BRD), Rheinprovinz
!!!YOR: 4, S. 118
!!    ????
!!!SCT: Q0075v
!!!YEM: Copyright 1995, estate of Helmut Schaffrath.
**kern	**text
*ICvox	*
*M4/4	*
*k[b-]	*
*F:	*
!LO:TX:a:t=612 Rheinprov.	!
{4f	Es
=1	=1
4f	war
4cc	ein-
8ccL	-mal
8b-J	.
4a	ein
=2	=2
4.a	Mägde-
8g	.
4g}	-lein,
{4g	das
=3	=3
4g	wollt
4dd	ſo
8ddL	ger-
8ccJ	.
4b-	-ne
=4	=4
4.b-	Dienſtmagd
8cc	.
4a}	ſein.
{4f	Es
=5	=5
4f	war
4ff	ein-
8ffL	-mal
8eeJ	.
4dd	ein
=6	=6
4.dd	Mägde-
8cc	.
8ccL	-lein,
8aJ}	.
{4cc	das
=7	=7
4cc	wollt
4cc	ſo
8ddL	ger-
8ccJ	.
4b-	-ne
=8	=8
4b-	Dienſtmagd
4cc	.
4a}	ſein.
==	==
!!!AGN: Ballade, Adelige als Dienstmagd, Tod; Kinder - Spiel, Tanz
!!!ONB: ESAC (Essen Associative Code) Database: BALLADE
!!!AMT: simple quadruple
!!!AIN: vox
!!!EED: Helmut Schaffrath
!!!EEV: 1.0
!!!source: Deutsche Volkslieder mit ihren Melodien. Herausgegeben vom Deutschen Volksliedarchiv. Vierter Band. Berlin 1959.
!!!page: 118
!!!ENC: Anna Maria Matuszewska
!!!EEV: 2025/02/27
*-	*-
